src/pos-icons/magnify-remove-cursor.svg

<svg height="24" viewBox="0 0 24 24" width="24" xmlns="http://www.w3.org/2000/svg"><path d="m1 1v7l7-7zm17 15h-.58l-.81-.81c.89-1.19 1.39-2.69 1.39-4.19 0-3.87-3.13-7-7-7-1.5 0-3 .5-4.21 1.4-3.09 2.32-3.72 6.71-1.4 9.8s6.71 3.72 9.8 1.4l.81.81v.59l5 5 2-2zm-3.4-2.84-1.42 1.42-2.12-2.13-2.12 2.13-1.44-1.42 2.15-2.12-2.15-2.12 1.44-1.42 2.12 2.13 2.12-2.13 1.42 1.42-2.13 2.12z"/></svg>

<?xml version="1.0" encoding="UTF-8"?><!DOCTYPE svg PUBLIC "-//W3C//DTD SVG 1.1//EN" "http://www.w3.org/Graphics/SVG/1.1/DTD/svg11.dtd"><svg xmlns="http://www.w3.org/2000/svg" xmlns:xlink="http://www.w3.org/1999/xlink" version="1.1" id="mdi-magnify-remove-cursor" width="24" height="24" viewBox="0 0 24 24"><path d="M1 1V8L8 1H1M18 16H17.42L16.61 15.19C17.5 14 18 12.5 18 11C18 7.13 14.87 4 11 4C9.5 4 8 4.5 6.79 5.4C3.7 7.72 3.07 12.11 5.39 15.2C7.71 18.29 12.1 18.92 15.19 16.6L16 17.41V18L21 23L23 21L18 16M14.6 13.16L13.18 14.58L11.06 12.45L8.94 14.58L7.5 13.16L9.65 11.04L7.5 8.92L8.94 7.5L11.06 9.63L13.18 7.5L14.6 8.92L12.47 11.04L14.6 13.16Z" /></svg>
